school/img/country/GW.svg

<svg width="13" height="12" viewBox="0 0 13 12" fill="none" xmlns="http://www.w3.org/2000/svg">
<rect width="13" height="12" rx="2" fill="white"/>
<mask id="mask0" mask-type="alpha" maskUnits="userSpaceOnUse" x="0" y="0" width="13" height="12">
<rect width="13" height="12" rx="2" fill="white"/>
</mask>
<g mask="url(#mask0)">
<path fill-rule="evenodd" clip-rule="evenodd" d="M0 12H13V5.60004H0V12Z" fill="#1AB558"/>
<path fill-rule="evenodd" clip-rule="evenodd" d="M0 5.6H13V0H0V5.6Z" fill="#FFD952"/>
<path fill-rule="evenodd" clip-rule="evenodd" d="M0 12H4.95238V0H0V12Z" fill="#E72B42"/>
<path fill-rule="evenodd" clip-rule="evenodd" d="M2.47621 6.76702L1.56654 7.61803L1.91173 6.23702L1.00433 5.38197L2.12734 5.37947L2.47621 4L2.82507 5.37947L3.94808 5.38197L3.04068 6.23702L3.38588 7.61803L2.47621 6.76702Z" fill="#262626"/>
</g>
</svg>

<svg width="13" height="12" fill="none" xmlns="http://www.w3.org/2000/svg"><rect width="13" height="12" rx="2" fill="#fff"/><mask id="a" maskUnits="userSpaceOnUse" x="0" y="0" width="13" height="12"><rect width="13" height="12" rx="2" fill="#fff"/></mask><g mask="url(#a)" fill-rule="evenodd" clip-rule="evenodd"><path d="M0 12h13V5.6H0V12z" fill="#1AB558"/><path d="M0 5.6h13V0H0v5.6z" fill="#FFD952"/><path d="M0 12h4.952V0H0v12z" fill="#E72B42"/><path d="M2.476 6.767l-.91.851.346-1.381-.908-.855 1.123-.003L2.477 4l.348 1.38 1.123.002-.907.855.345 1.381-.91-.851z" fill="#262626"/></g></svg>
